X:1
T:Dives and Lazarus
M:4/4
L:1/4
K:F
 F| Fc/2-c/2 cB/2-A/2| G G Fc/2-c/2| cc/2-A/2 cc/2-d/2| c3 c|A,/2-B,/2|\
 CC/2-C/2 F F| F E FF/2-F/2| E D E F| E3 E| c3/2 A/2 cd/2-d/2| cc/2-A/2 FA/2-A/2|\
 BA/2-A/2 G G| F3|| F E FF/2-F/2| G E DE/2-E/2| D E F E| C3||
